X:1
T:Multi-Key Modal Timothy Swan, 1801
T:Various Bible Passages
T:Dedication Anthem
T:Transcribed from Swan's New England Harmony, 1801.
%%score [ 1 2 3 4 ]
L:1/8
Q:1/4=150
M:4/4
K:E
V:1 treble nm="Tr." snm="Tr."
V:2 treble nm="C." snm="C."
V:3 treble-8 nm="T." snm="T."
V:4 bass nm="B." snm="B."
V:1
 e4 d4 | e8 | e4 z4 | B4 B4 | c4 e4 | f2 e2 d2 c2 | B8 | z8 | z8 | z8 | B4 B2 B2 | B2 c2 B4 | %12
 (e3 f g2) e2 | (f2 d2) B4 | B6 B2 | G4 A4 | B4 c2 e2 | d2 f2 e4 | z4 B4 | e4 e2 B2 | e4 e4 | %21
 d2 B2 c4- | c4 B2 B2 | B2 ec B4- | B4 f2 d2 | e2 e2 B2 c2 | d4 e4- | e4 z4 | z8 | z8 | z4 z2 B2 | %31
 e8 | G4 c2 c2 | c4 (A2 F2) | B8 | B6 B2 | e6 B2 | d4 B2 G2 | A8 | z4 d4 | g2 d2 B2 G2 | c6 A2 | %42
 (B3 c d2) e2 | d4 B2 G2 | g4 e4 | d4 d4 |[M:3/2] z12 | z12 | z12 | z12 |[M:4/4] z8 | z8 | z8 | %53
 z8 | z8 |[M:3/2] B4 B4 (d2 B2) | (c2 d2) (e2 g2) d4- | d8 d4 | (A3 B c4) e4 | e8 g4 | e6 e2 e4 | %61
 g4 d4 (d2 B2) | A8 z4 | %63
"^Have  thou re–spect         to  the  prayer  of  thy  ser – vants,                                                                                                            Hear" d8 d2 d2 | %64
 B8 d2 d2 | e8 g2 e2 | d8 d4 | z12 | z12 | z12 | e12 |"^thou our sup-pli-ca-tion." d2 d2 d2 d2 B4 | %72
 e8 z4 |[M:4/4] d2 d2 B4 | d4 e2 c2 | (B8 | e2) g2 d2 B2 | A4 A4 | z8 | z8 | z8 | z8 | z8 | z8 | %84
 z8 | z8 | z8 | z8 | z8 | z8 | z8 | z8 | z8 | z8 | z8 | z8 | z8 | %97
[M:3/2]"^pray  for  the  peace         of   Zi   –  on.           They shall prosper who" G8 G2 B2 | %98
 e6 B2 d4 | d12 |[M:4/4] B2 c2 (d2 B2) | B4 e4 |"^seek       its    wel–fare." (e2 c2 A2) g2 | %103
 f4 d4- | d4 z4 | z8 | z8 | z8 | z8 | z4 z2"^And be  u–ni–ted   in    the  bonds of" B2 | %110
 d2 g2 g2 d2 | B6 c2 | d6 d2 | d8 |[M:3/2] d8 d2 d2 | B4 [Gg]4 G2 B2 | c12 | B8 B2 B2 | %118
 A4 d4 d2 B2 | G12 |[M:6/4] (d2 B2) d2 g4 d2 | (B2 G2) B2 (c2 e2) e2 | %122
"^guests.            Who  shall  en      –      ter     in–to   the  con-gre-ga-tion of     the  Lord?" d6- d6 | %123
[M:4/4] d6 d2 | (B3 A B2) e2 | A2 Bc d2 d2 | e2 c2 B4 | c4 d4- | d4 z4 | z8 | z8 | z8 | z8 | %133
 B3 A G2 G2 | (B2 A2) d2 B2 | (G4 A4) | B6 B2 | (B2 A2) d2 d2 | d4 d4 | e3 d c2 c2 | B4 d4 | %141
 (A3 B c2) e2 | d4 d4 | B8 | z8 | z8 | z4 z2 d2 | B4 G2 A2 | d6 B2 | A2 B2 c2 e2 | d8 | %151
"^That the King of  glo       –      ry" G2 G2 A2 c2 | (B2 g2 d2) B2 | %153
"^may          come   in." A6 A2 | A8 | z8 | z8 | z8 | %158
"^The  Lord,                                                  strong and mighty, strong and mighty,     The Lord,    mighty  in" d4 d4- | %159
 d4 z4 | z8 | z8 | d2 d2 d2 d2 | d6 d2 | d2 d2 z2 B2 | B8 | B4 e2 f2 | %167
"^bat       –      tle,        mighty  in  battle.                                                                                        Ev – en    lift   them up,     ye   ev– er –  las– ting" B4 B4 | %168
 c4 B2 B2 | e2 e6 | z8 | z8 | z8 | z8 | B4 c4 | d6 d2 | e6 e2 | e2 e2 c2 GA | %178
"^doors,  that the King of  glo –  ry        may ______ come in,          that  the King of   glo          –        ry        may  come  in,    that the King of" B8 | %179
 c2 c2 e2 d2 | e6 fe | (d3 c B2) B2 | B4 z4 | B2 B2 c2 e2 | (f3 e d2) c2 | B6 d2 | e4 z4 | %187
 e2 e2 d2 c2 | %188
"^glo     –     ry        may  come  in.                                                                                                                                                            The Lord of hosts," B6 e2 | %189
 f4 d4 | e8 | z8 | z8 | z8 | z8 | z8 | z8 | z8 | e4 B2 G2 | B8 | %200
"^He  is  the  King   of     glo    –    ry.     He   is  the  King  of   glo    –      ry.    Hal  –  le   –  lu   –  jah,   Hal – le  –  lu  – jah,     A    –    men," e4 B2 B2 | %201
 Bc de (f2 d2) | B6 B2 | c3 d e2 e2 | f8 | e8 | eB GB c2 c2 | e2 GB cB A2 | (G4 B4) | e4 z4 | %210
"^A    –   men." c8 | B8- | B8 |] %213
V:2
"^The  Lord    reigneth,           The Lord reigneth,  let  the  earth  rejoice,   Let  the    multitude   of  the  nations    be   glad.    Honor and" G4 G4 | %1
 B8 | B4 z4 | B4 B4 | A4 G4 | B2 E2 F2 F2 | G6 GE | F2 F2 B2 BA | G4 G2 E2 | B8 | G4 G2 G2 | %11
"^ma-jes-ty   are              be – fore   him,    strength     and   beau–ty     are      in his countenance.         Sing  prai – ses, sing  prai–ses" G2 G2 G4 | %12
 B6 G2 | F4 F4 | (G3 A B2) B2 | (B2 G2) F4 | B4 A2 G2 | F2 B2 G4 | z4 G4 | (G2 E2) E2 G2 | B4 G4 | %21
"^unto   God;     make a   joy–ful   noise          to      the       God  of  our   sal  –   va   –  tion.                                                                          To" F2 E2 F4- | %22
 F4 G2 G2 | B2 B2 B4- | B4 BA GF | E2 G2 A2 AG | (F2 B2) G4- | G4 z4 | z8 | z8 | z4 z2 G2 | %31
"^praise  him    in  the   house  of   prayer.   But   will   God ______   indeed      dwell  on  earth,          Will   he   affix    his   name ________ un –" B8 | %32
 B4 G2 G2 | A4 F4 | E8 | E6 F2 | (G3 A B2) B2 | B4 G2 B2 | A8 | z4 G4 | B2 G2 D2 G2 | %41
 (G2 AB c2) A2 | %42
"^–to _________ the   temple which  men        have  builded?             Be–hold,  the     heav'n  of   heav'ns    cannot contain thee, cannot con–" (B2 AG F2) A2 | %43
 G4 G2 G2 | B6 G2 | A4 A4 |[M:3/2] z8 G4 | D8 (F2 A2) | A8 (G2 B2) | B8 z4 |[M:4/4] G4 G2 G2 | %51
 F4 D4 | c4 A2 A2 | %53
"^–tain   thee.       How much less  then  this   house?        And now, Lord,  our      eyes   are        un – to thee   for  thy     bles  –  sing." F8 | %54
 G8 |[M:3/2] G4 B4 B4 | G4 G4 (G4 | A8) F4 | F4 A4 c4 | B8 B4 | A6 A2 A4 | B4 B4 G4 | A8 z4 | %63
"^Have   thou re–spect       to  the   prayer  of  thy  ser – vants,                                                              Hear                                     thou    our" G8 A2 A2 | %64
 (G4 E4) A2 B2 | G8 G2 E2 | A8 A4 | z12 | z12 | D12 | G8 E4 | %71
"^sup   –    pli – ca   –   tion.             May thine eyes be  ever     o      –    pen   to  this  temple," A6 B2 G4 | %72
 A8 z4 |[M:4/4] B2 B2 B4 | B4 G2 G2 | (G8 | B2) B2 G2 G2 | A4 A4 | z8 | z8 | z8 | z8 | z8 | z8 | %84
 z8 | z8 | z8 | z8 | z8 | z8 | z8 | z8 | z8 | z8 | z8 | z8 | z8 | %97
[M:3/2]"^pray  for  the  peace         of   Zi   –  on." G8 G2 G2 | (B3 A G2) G2 A4 | A12 | %100
[M:4/4] z8 | z8 | z8 | z8 | z8 | z8 | z8 | z8 | z8 | %109
 z4 z2"^And  be  u–ni–ted  in     the  bonds of" G2 | B2 G2 B2 B2 | B6 G2 | D6 D2 | %113
"^peace.        Peace be within these sacred walls.        Peace be within these sacred walls.            Love and friendship  be    the   con – stant" D8 | %114
[M:3/2] G8 G2 G2 | G4 G4 G2 G2 | E12 | G8 B2 G2 | A4 A4 F2 D2 | G12 |[M:6/4] G4 B2 G4 G2 | %121
 B4 B2 A4 A2 | %122
"^guests.            Who  shall  en      –      ter     in–to   the  con-gre-ga-tion of     the  Lord?" A6- A6 | %123
[M:4/4] B6 B2 | G6 A2 | A2 GF G2 B2 | c2 A2 G4 | A4 B4- | B4 z4 | z8 | z8 | z8 | z8 | %133
"^He that hath clean hands and  a   pure   heart. Who  hath not  lift       up   his  soul   to  va– ni– ty,   nor   sworn  de – ceit – ful  –  ly." G3 A B2 c2 | %134
 (B2 A2) A2 G2 | (G4 A4) | B6 G2 | (G2 A2) B2 A2 | B4 B4 | G3 G A2 A2 | B4 B4 | A4 A4 | %142
 (B2 G2) F4 | G8 | z8 | z8 | %146
 z4 z2"^And be   ye   lift      up,    ye   ev-er-las-ting   doors, That the King of  glo       –      ry  may           come   in." G2 | %147
 B4 B2 A2 | A6 G2 | A2 B2 G2 A2 | [Dd]8 | B2 B2 G2 A2 | B6 G2 | (F3 G A2) A2 | A8 | z8 | z8 | z8 | %158
"^The  Lord,                  The  Lord,          strong and mighty,  strong  and  mighty,     The Lord,     mighty  in" B4 B4- | %159
 B4 z4 | B4 B4- | B4 z4 | B2 B2 B2 G2 | A6 A2 | B2 B2 z2 G2 | E8 | E4 E2 [FB]2 | %167
"^bat  – tle,                   mighty  in  battle.                                            Lift up your heads.                                                      ye    ev– er – las– ting" G2 G2 z4 | %168
 F4 F2 F2 | G2 G6 | z8 | z8 | G4 G2 G2 | B8 | z8 | z8 | z4 z2 E2 | G2 G2 F2 F2 | %178
"^doors,  that the King of  glo –  ry        may ______ come in,          that  the King of   glo          –        ry        may  come  in,    that the King of" (E4 F4) | %179
 G2 G2 B2 B2 | B6 E2 | (F2 B2 G2) F2 | F4 z4 | B2 G2 E2 E2 | A6 G2 | F6 F2 | G4 z4 | G2 G2 E2 E2 | %188
"^glo     –     ry        may  come  in.                                                                     The   Lord   of   hosts      The  Lord  of   hosts,  The Lord of hosts," B6 G2 | %189
 F4 F4 | G8 | z8 | z8 | z8 | z4 B4 | B2 AG A4- | A2 GF G2 FE | B8 | G4 G2 G2 | G8 | %200
"^He  is  the  King   of     glo    –    ry.     He   is  the  King  of   glo    –      ry.     Hal  –  le   –  lu   –  jah,   Hal – le  –  lu  – jah,    A    –    men," B4 B2 B2 | %201
 B2 B2 B4 | B6 G2 | G2 G2 E2 F2 | B8 | G8 | B2 E2 G2 G2 | E2 G2 AG F2 | B8 | G4 z4 | %210
"^A    –   men." F8 | [EG]8- | [EG]8 |] %213
V:3
 e4 B4 | g8 | g4 z4 | f4 f4 | (f4 g2) e2 | d2 c2 B2 cd | e6 GA | B2 B2 B2 ef | (g2 e2) c2 c2 | B8 | %10
 G4 G2 B2 | e2 e2 e4 | g6 e2 | f4 f4 | (e3 f e2) f2 | (g2 e2) c4 | (d2 e2) f2 g2 | B2 B2 B4 | %18
 z4 B4 | B4 e2 e2 | (g2 e2) e4 | G2 B2 c4- | c4 G2 B2 | e2 eg f4- | f4 G2 B2 | c2 B2 G2 E2 | %26
 F4 E4- | E4 z4 |"^Who hath inclined our hearts    To" G4 G2 G2 | G4 E2 E2 | B6 ec | B8 | %32
 e4 c2 e2 | c4 (c2 B2) | e8 | e6 f2 | (g3 f e2) e2 | (d2 B2) B2 d2 | d8 | z4 B4 | B2 B2 B2 B2 | %41
 e6 d2 | (d3 e d2) c2 | B4 G2 g2 | (d3 e d2) c2 | B4 G4 |[M:3/2] z8 G4 | B8 d4 | d8 g4 | g8 z4 | %50
[M:4/4] z8 | z8 | z8 | z8 | z8 |[M:3/2] d4 d4 (g2 f2) | (e2 d2) (c2 B2) (B4 | A8) A4 | %58
 A4 A4 (G2 A2) | B8 (A2 B2) | c6 c2 c4 | d4 (e2 d2) B4 | d8 z4 | %63
"^Have   thou re–spect       to  the   prayer  of  thy  ser – vants,                        Hear _________________   thou our supplication, Hear thou our" B8 A2 d2 | %64
 B8 A2 B2 | c8 B2 c2 | d8 d4 | z12 | c12 | d2 B2 G2 B2 B2 d2 | e8 B2 B2 | %71
"^sup   –   pli – ca  –  tion." d6 B2 d4 | e8 z4 |[M:4/4] d2 d2 d4 | d4 g2 e2 | (e8 | %76
 g2) e2 d2 B2 | d4 d4 |"^May       thine      ho   –   nor        at      all" (d3 c) (B2 d2) | %79
 (c2 A2) (G2 F2) | G4 (A3 d) |"^times  dwell    here." (c2 B2) (A2 G2) | A8 | z8 | z8 | z8 | z8 | %87
 z8 | z8 | z8 | z8 | z8 | z8 | z8 | z8 | z8 | %96
"^Let   all            pray  for  the  peace            of   Zi   –   on." B4 (G2 E2) | %97
[M:3/2] E8 G2 E2 | B6 B2 A4 | A12 |[M:4/4] z8 | z8 | z8 | z8 | z8 | %105
"^May    they    on     sight  of this house forget  their         hatred, And  be  u–ni–ted  in    the   bonds of" (B2 d2) cB AG | %106
 d4 A2 B2 | c6 g2 | d4 (Bc d2) | c4 A2 d2 | B2 G2 g2 g2 | f6 e2 | d6 d2 | d8 |[M:3/2] B8 B2 B2 | %115
 d4 e4 e2 B2 | A12 | d8 d2 d2 | d4 A4 A2 B2 | c12 |[M:6/4] B4 G2 d4 B2 | g4 e2 (e2 c2) A2 | %122
"^guests." d6- d6 |[M:4/4] z8 | z8 | z8 | z8 | z8 | z8 | z8 | z8 | z8 | z8 | G3 A B2 c2 | %134
 d4 d2 d2 | (e4 f4) | g6 d2 | (B2 d2) d2 ef | g4 f4 | e3 e e2 e2 | d4 B4 | (c3 B c2) A2 | G4 F4 | %143
 G8 | z8 | z8 | z4 z2 B2 | d4 e2 fg | a6 g2 | f2 f2 e2 e2 | d8 | %151
"^That the King of  glo       –        –        ry   may come in." g2 g2 e2 e2 | (d3 e d2 g2 | %153
 d2) B2 A2 G2 | d8 | z8 | z8 | z8 | %158
"^The  Lord,                  The  Lord,            strong and mighty, strong and mighty,      The Lord,   mighty  in" G4 B4- | %159
 B4 z4 | g4 g4- | g4 z4 | g2 g2 f2 d2 | d6 ef | g2 g2 z2 B2 | e8 | e4 e2 f2 | %167
"^bat         –         tle,   mighty in   battle.             Lift    up   your  heads,           O  ye  gates,                                               ye    ev– er –  las– ting" (gfef g2) B2 | %168
 f4 f2 f2 | e2 B6 | z4 B4 | (B4 e2) f2 | g8 | e2 g2 B4- | B4 z4 | z8 | z4 z2 B2 | B2 AG A2 GF | %178
"^doors,  that the King of  glo –  ry        may ______ come in,          that  the King of   glo          –        ry        may  come  in,    that the King of" (G4 F4) | %179
 B2 e2 e2 f2 | g6 fe | f6 f2 | f4 z4 | e2 e2 e2 c2 | c6 ec | B6 B2 | B4 z4 | B2 B2 B2 A2 | %188
"^glo     –     ry        may  come  in.    Who   is this King of  glo – ry?                                                                                                The Lord of hosts," G6 BG | %189
 F6 F2 | E8 | B8 | c2 e2 e2 g2 | c4 B4- | B4 z4 | z8 | z8 | z8 | B4 G2 E2 | e8 | %200
"^He  is  the  King   of     glo    –    ry.     He   is  the  King  of   glo    –      ry.     Hal  –  le   –  lu   –  jah,   Hal – le  –  lu  – jah,    A    –    men," e4 d2 B2 | %201
 G2 G2 f4 | f6 g2 | e3 g e2 c2 | B8 | B8 | e2 e2 eg e2 | c2 c2 ce c2 | B8 | B4 z4 | %210
"^A    –   men." A8 | G8- | G8 |] %213
V:4
 E,4 (G,2 B,2) | [E,E]8 | [E,E]4 z4 | [B,,B,]4 [B,,B,]4 | F,4 E,4 | B,,2 A,2 B,2 B,,2 | E,8 | z8 | %8
 z8 | z8 | G,4 E,2 E,2 | E,2 C,2 E,4 | E,6 E,2 | B,4 B,4 | E,6 B,,2 | E,4 F,4 | (B,2 G,2) F,2 E,2 | %17
 B,2 B,,2 E,4 | z4 E,4 | E,4 E,2 E,2 | E4 (E2 C2) | B,2 G,2 F,4- | F,4 B,2 G,2 | %23
 E,2 E,2 [B,,B,]4- | [B,,B,]4 B,2 B,,2 | A,2 G,2 F,E, D,C, | B,,4 E,4- | E,4 z4 | z8 | z8 | %30
 z4 z2 E,2 | E,8 | (E,2 C,2) C,2 C,2 | F,4 F,4 | E,8 | E,6 B,,2 | E,6 E,2 | B,,4 G,2 G,2 | D,8 | %39
 z4 G,4 | G,2 G,2 G,2 G,2 | C,6 D,2 | (G,3 A, B,2) A,2 | (B,2 G,2) E,2 E,2 | (G,3 A, B,2) C2 | %45
 D4 D4 |[M:3/2] z12 | z12 | z12 | z12 |[M:4/4] z8 | z8 | z8 | z8 | z8 |[M:3/2] G,4 G,4 B,4 | %56
 (C2 B,2) (A,2 G,2) (G,4 | D,8) D,4 | D,4 A,,4 A,,4 | E,8 (F,2 G,2) | A,6 A,2 A,4 | G,4 G,4 G,4 | %62
 D,8 z4 | G,8 D,2 D,2 | E,8 F,2 G,2 | C,8 G,2 A,2 | D,8 D,4 | %67
"^Hear          thou our sup-pli-ca–tion,                   Hear        thou    our" B,12 | %68
 A,2 A,2 A,2 A,2 A,4 | G,8 B,,4 | E,8 E,4 |"^sup   –   pli – ca  –  tion." D,6 G,2 (G,2 B,2) | %72
 A,8 z4 |[M:4/4] B,2 B,2 B,4 | G,4 C,2 C,2 | E,8- | E,2 E,2 G,2 G,2 | D,4 D,4 | z8 | z8 | z8 | z8 | %82
 z8 | %83
"^May this house, which is call-ed by thy name, And which has been devoted to the God  of  peace,  Ev – er   be   the" G,6 A,2 | %84
 B,4 E,2 E,2 | F,3 E, F,2 G,2 | A,4 D,4 | E,3 D, E,2 F,2 | G,2 G,2 D,2 C,2 | B,,6 B,,2 | A,,8 | %91
 D,3 C, B,,2 B,,2 |"^seat  of  peace,  of   har–mo–ny and joy." B,,2 A,,B,, C,4 | D,4 G,3 B, | %94
 A,2 A,2 G,4- | G,4 z4 | z8 |[M:3/2] C,8 E,2 E,2 | E,6 G,2 D,4 | D,12 | %100
[M:4/4]"^They shall prosper who" G,2 A,2 (B,2 G,2) | G,4 E,4 | %102
"^seek        its   wel–fare." A,6 G,2 | D,4 D,4- | D,4 z4 | z8 | z8 | z8 | z8 | z4 z2 G,2 | %110
 G,2 G,2 G,2 G,2 | B,6 C2 | D6 D2 | D8 |[M:3/2] G,8 G,2 G,2 | G,4 C,4 C,2 E,2 | A,,12 | %117
 G,8 G,2 G,2 | D,4 D,4 D,2 G,2 | C,12 |[M:6/4] G,4 G,2 G,4 G,2 | E,4 E,2 A,4 A,2 | %122
"^guests." D,6- D,6 |[M:4/4] z8 | z8 | z8 | z8 | z8 | z8 | %129
"^Who shall  stand  in  his  ho –ly    place?" D6 D,2 | C4 C2 C2 | B,4 A,4 | G,8 | G,3 F, E,2 C,2 | %134
 (B,,2 D,2) D,2 G,2 | (E,4 D,4) | G,6 G,2 | (G,2 D,2) B,,2 D,2 | G,4 B,4 | C3 B, A,2 A,2 | %140
 B,4 G,4 | A,4 A,,4 | (B,,2 C,2) D,4 | [G,,G,]8 |"^Lift up your heads, ye gates," B,,4 D,2 D,2 | %145
 G,6 G,2 | B,6 B,2 | G,4 E,2 D,2 | D,6 G,2 | D2 B,2 C2 A,2 | (B,4 G,4) | %151
"^That the King of  glo  –  ry          may         come       in." E,2 E,2 C2 A,2 | B,4 G,4 | %153
 D4 D,4 | D,8 | %155
"^Who   is this king of  glo–ry?                           Who?                               strong and mighty, strong and mighty,      The Lord,     mighty  in" A,8 | %156
 A,2 A,2 A,2 A,2 | B,4 D4 | z8 | z4 D4 | z8 | z8 | G,2 G,2 B,2 D2 | D,6 D,2 | G,2 G,2 z2 G,2 | %165
 E,8 | E,4 C,2 B,,2 | %167
"^bat          –         tle,     mighty  in  battle.                                                                                     Ev – en   lift  them  up,     ye    ev– er –  las– ting" G,6 G,2 | %168
 F,4 B,2 B,,2 | E,2 E,6 | z8 | z8 | z8 | z8 | E,4 A,4 | B,6 B,,2 | E,6 E,2 | E,2 D,E, F,2 E,D, | %178
"^doors,  that the King of  glo –  ry        may ______ come in,          that  the King of   glo          –        ry        may  come  in,    that the King of" (E,4 B,,4) | %179
 G,2 E,2 G,2 B,2 | [E,E]6 [D,D][C,C] | [B,,B,]6 [B,,B,]2 | [B,,B,]4 z4 | E,2 E,2 A,2 A,G, | %184
 (F,3 G, F,G,) A,2 | B,6 B,,2 | E,4 z4 | E,2 E,2 G,2 A,2 | %188
"^glo     –     ry        may  come  in.                                                                                                                                                           The Lord of hosts," (B,2 G,2 E,2) C,2 | %189
 B,,6 B,,2 | E,8 | z8 | z8 | z8 | z8 | z8 | z8 | z8 | E,4 E,2 E,2 | E,8 | %200
"^He  is  the  King   of     glo    –    ry.     He   is  the  King  of   glo    –      ry.     Hal  –  le   –  lu   –  jah,   Hal – le  –  lu  – jah,    A    –    men," E,4 G,2 G,2 | %201
 B,2 B,2 B,4 | B,6 E2 | C3 C C2 A,2 | (B,4 B,,4) | E,8 | E,2 E,2 C,2 C,2 | A,2 G,2 F,E, F,2 | %208
 (G,4 B,4) | E,4 z4 | %210
"^____________________________________________________\nEdited by B. C. Johnston, 2016\n   1. Measures of rest removed after measures 115, 117, 120, 166, and 206.""^A    –   men." F,8 | %211
 E,8- | E,8 |] %213

